!! 00046] TT[KA
!! NN
!!!OTL: Guai mo zi, Weizen mahlen)
!!!ARE: Asia, China,ÿShandong, Zibuo
!! Ethnic Group: Han
!! III, 390
!!!SCT: C0314
!!!YEM: Copyright 1995, estate of Helmut Schaffrath.
**kern
*ICvox
*Ivox
*M2/4
*k[b-e-a-]
*E-:
{8cc
8cc
4g
=1
8cc
8cc
4g
=2
4cc
8cc
8gg
=3
4gg
8gg
8ff}
=4
{8.ee-
16ff
8gg
8ff
=5
8ee-
8cc
8cc
8g}
=6
{8cc
8cc
8cc
8g}
=7
{8r
8cc
8cc
8cc
=8
4cc
8cc
8ff
=9
8dd
8cc
8cc
8g}
=10
{8cc
8cc
4g
=11
8cc
8cc
4g
=12
4cc
8cc
8gg
=13
4gg
8gg
8ff}
=14
{8.ee-
16ff
8gg
8ff
=15
8ee-
8cc
8cc
8g}
=16
{4r
4r
=17
8g
16g
16f
4g}
=18
{4r
4r
=19
8g
16g
16f
4g}
=20
{8cc
8cc
8cc
8g}
=21
{8r
8cc
8cc
8cc
=22
4cc
8cc
8ff
=23
8dd
8cc
8cc
8g}
=24
{8cc
8cc
8cc
8g}
=25
{8r
8cc
8cc
8cc
=26
4cc
8cc
8ff
=27
8dd
8cc
8cc
8g}
==
!!!AGN: Wuge, Huagu. Mo doufu qingjinq
!! Zum Lied existiert auch ein ironischen Schauspiel.
!!    Zwischen- und Nachspiel weggelassen.
!!!ONB: ESAC (Essen Associative Code) Database: CHINA
!!!AMT: simple duple
!!!AIN: vox
!!!EED: Helmut Schaffrath
!!!EEV: 1.0
*-
